X:1
T:THE BLACK BEAR HORNPIPE
M:C|
L:1/8
Q:80
C:Traditional
S:March
K:HP
|: {g}A3/4B/4 | \
{Gdc}d{gdG}d{g}f3/4d/4a3/4f/4 | \
{Gdc}d{gdG}d{g}f3/4d/4a3/4f/4 |
{gef}e{g}B{GdG}B{g}e/2d/2 | \
{g}c/4d3/4{g}B3/4{d}c/4{g}A3/4B/4{g}c/4{d}A3/4 | \
{Gdc}d{gdG}d{g}f3/4d/4a3/4f/4 |
{Gdc}d{gdG}d{g}f3/4d/4a3/4f/4 | \
{gef}e{GdG}e{g}e3/4g/4{a}f3/4e/4 | \
{Gdc}d{g}f{Gdc}d ::
e | \
{g}A{GdGe}A3/4B/4{Gdc}d{gdG}d3/4e/2 | \
{gf}g{fg}f3/4e/2{g}f/4a3/4{fg}f3/4d/4 | \
{g}A{GdGe}A3/4B/4{Gdc}d{gdG}d3/4e/2 |
{gf}g{fg}f3/4e/4{g}f/4a3/4f/4a3/4 | \
A3/4{d}A/4{e}A3/4{d}c/4{g}A3/4{d}A/4{e}A3/4{d}d/4 | \
{g}B3/4{d}B/4{e}B3/4{d}e/4{g}c3/4{d}c/4{e}c |
{g}d3/4f/4{g}d3/4f/4{g}e3/4g/4{a}f3/4g/4 | \
a{GdG}a{g}a3/4g/4{a}f3/4e/4 :|
